X:1
T:The Showman's Fancy
L:1/8
M:4/4
I:linebreak $
K:D
V:1 treble 
V:1
 FG |: AFAB A2 fd | B2 gf edcB | AFAB AFDF | EDEF E2 DF | AFAB A2 fd |$ B2 gf edcB | Adfa gece |1 %8
 d2 dc d2 FG :|2 d2 dc d2 cd |: e e2 f gece | dcde fdAd |$ (3gag (3fgf (3efe (3ded | %13
 c2 (3BcB AGFG | AFAB A2 fd | B2 gf edcB | Adfa gece |$ d2 dc d2 cd :| %18
